mobile/apps/auth/assets/custom-icons/icons/open_observe.svg

<svg width="498" height="499" viewBox="0 0 498 499" fill="none" xmlns="http://www.w3.org/2000/svg">
<path d="M411.491 249.489C411.491 254.498 411.243 259.461 410.814 264.38H318.347L311.288 250.053L261.062 350.343L219.497 230.446L191.171 324.058L153.304 264.38H88.0809C87.6524 259.461 87.4043 254.498 87.4043 249.489C87.4043 244.48 87.6524 239.493 88.0809 234.575H169.745L181.563 253.211L217.693 133.991L266.069 273.879L311.513 183.065L336.773 234.575H410.746C411.197 239.493 411.491 244.547 411.491 249.489Z" fill="#444444"/>
<path d="M277.276 40.9205C277.132 49.4665 274.393 57.7665 269.422 64.7181C264.451 71.6697 257.484 76.9441 249.446 79.8408C227.172 79.8408 205.116 84.2302 184.538 92.7583C163.96 101.286 145.263 113.786 129.514 129.544C113.765 145.302 101.273 164.009 92.751 184.597C84.2292 205.184 79.8446 227.25 79.8476 249.533C76.9636 241.367 71.6193 234.295 64.5508 229.294C57.4824 224.292 49.0376 221.607 40.3798 221.607C31.7221 221.607 23.2773 224.292 16.2089 229.294C9.14043 234.295 3.79611 241.367 0.912119 249.533C0.90323 216.878 7.32551 184.541 19.8121 154.369C32.2987 124.198 50.6048 96.7832 73.6848 73.6914C96.7648 50.5996 124.166 32.2832 154.324 19.7887C184.482 7.29408 216.805 0.866146 249.446 0.872074C257.664 3.83466 264.758 9.28105 269.745 16.4566C274.731 23.6322 277.363 32.1817 277.276 40.9205Z" fill="url(#paint0_linear_430_3947)"/>
<path d="M497.934 249.488C495.05 257.655 489.706 264.726 482.637 269.728C475.569 274.729 467.124 277.415 458.466 277.415C449.809 277.415 441.364 274.729 434.295 269.728C427.227 264.726 421.883 257.655 418.999 249.488C418.987 204.503 401.12 161.362 369.326 129.551C337.532 97.7388 294.412 79.8588 249.445 79.8408C257.609 76.9556 264.677 71.609 269.676 64.5376C274.676 57.4662 277.36 49.0179 277.36 40.3564C277.36 31.695 274.676 23.2467 269.676 16.1753C264.677 9.10385 257.609 3.75728 249.445 0.87207C282.079 0.87207 314.394 7.30288 344.543 19.7973C374.693 32.2917 402.087 50.605 425.161 73.6914C448.236 96.7779 466.539 124.185 479.026 154.349C491.512 184.512 497.937 216.841 497.934 249.488Z" fill="url(#paint1_linear_430_3947)"/>
<path d="M497.933 249.488C497.936 282.134 491.511 314.462 479.024 344.624C466.537 374.786 448.234 402.192 425.159 425.276C402.084 448.361 374.69 466.672 344.54 479.164C314.391 491.656 282.077 498.084 249.444 498.081C241.281 495.196 234.213 489.849 229.213 482.778C224.214 475.707 221.529 467.258 221.529 458.597C221.529 449.935 224.214 441.487 229.213 434.416C234.213 427.344 241.281 421.998 249.444 419.112C271.718 419.115 293.774 414.729 314.354 406.203C334.933 397.678 353.632 385.181 369.383 369.425C385.134 353.67 397.629 334.964 406.153 314.377C414.678 293.791 419.065 271.726 419.065 249.442C421.949 257.609 427.293 264.68 434.362 269.682C441.43 274.683 449.875 277.369 458.533 277.369C467.191 277.369 475.635 274.683 482.704 269.682C489.772 264.68 495.117 257.609 498.001 249.442L497.933 249.488Z" fill="url(#paint2_linear_430_3947)"/>
<path d="M249.446 498.083C183.542 498.083 120.338 471.892 73.7377 425.271C27.137 378.651 0.957031 315.42 0.957031 249.489C3.84102 241.322 9.18534 234.251 16.2538 229.25C23.3222 224.248 31.767 221.562 40.4247 221.562C49.0825 221.562 57.5273 224.248 64.5957 229.25C71.6642 234.251 77.0085 241.322 79.8925 249.489C79.8925 294.488 97.7608 337.645 129.567 369.464C145.315 385.219 164.012 397.717 184.588 406.244C205.165 414.771 227.219 419.159 249.491 419.159C241.328 422.044 234.259 427.391 229.26 434.462C224.261 441.534 221.576 449.982 221.576 458.644C221.576 467.305 224.261 475.753 229.26 482.825C234.259 489.896 241.328 495.243 249.491 498.128L249.446 498.083Z" fill="url(#paint3_linear_430_3947)"/>
<defs>
<linearGradient id="paint0_linear_430_3947" x1="0.957225" y1="125.169" x2="277.276" y2="125.169" gradientUnits="userSpaceOnUse">
<stop stop-color="#D1C6E0"/>
<stop offset="0.35" stop-color="#9274B2"/>
<stop offset="0.71" stop-color="#652F8D"/>
<stop offset="1" stop-color="#2B1143"/>
</linearGradient>
<linearGradient id="paint1_linear_430_3947" x1="249.445" y1="139.09" x2="497.934" y2="139.09" gradientUnits="userSpaceOnUse">
<stop offset="0.01" stop-color="#82C2DF"/>
<stop offset="0.3" stop-color="#3CAFD9"/>
<stop offset="0.59" stop-color="#0379B8"/>
<stop offset="0.7" stop-color="#006DAC"/>
<stop offset="0.73" stop-color="#006AA9"/>
<stop offset="0.91" stop-color="#334C84"/>
<stop offset="1" stop-color="#3A447A"/>
</linearGradient>
<linearGradient id="paint2_linear_430_3947" x1="240.4" y1="466.797" x2="581.559" y2="212.975" gradientUnits="userSpaceOnUse">
<stop stop-color="#0C6237"/>
<stop offset="0.406444" stop-color="#31BB77"/>
<stop offset="0.752196" stop-color="#5BC792"/>
<stop offset="0.98" stop-color="#B1E9CD"/>
</linearGradient>
<linearGradient id="paint3_linear_430_3947" x1="0.957031" y1="359.865" x2="249.446" y2="359.865" gradientUnits="userSpaceOnUse">
<stop stop-color="#931B1E"/>
<stop offset="0.32" stop-color="#ED4725"/>
<stop offset="0.38" stop-color="#EE5F26"/>
<stop offset="0.53" stop-color="#F08F27"/>
<stop offset="0.74" stop-color="#F5C321"/>
<stop offset="0.88" stop-color="#F8D718"/>
<stop offset="1" stop-color="#F6DF65"/>
</linearGradient>
</defs>
</svg>

<svg xmlns="http://www.w3.org/2000/svg" fill="none" viewBox="0 0 498 499"><path fill="#444" d="M411.491 249.489c0 5.009-.248 9.972-.677 14.891h-92.467l-7.059-14.327-50.226 100.29-41.565-119.897-28.326 93.612-37.867-59.678H88.081c-.429-4.919-.677-9.882-.677-14.891s.248-9.996.677-14.914h81.664l11.818 18.636 36.13-119.22 48.376 139.888 45.444-90.814 25.26 51.51h73.973c.451 4.918.745 9.972.745 14.914Z"/><path fill="url(#a)" d="M277.276 40.92a42.133 42.133 0 0 1-7.854 23.798 42.11 42.11 0 0 1-19.976 15.123c-22.274 0-44.33 4.39-64.908 12.917a169.582 169.582 0 0 0-55.024 36.786 169.682 169.682 0 0 0-36.763 55.053 169.725 169.725 0 0 0-12.903 64.936 41.874 41.874 0 0 0-15.297-20.239 41.842 41.842 0 0 0-48.342 0A41.874 41.874 0 0 0 .912 249.533a248.688 248.688 0 0 1 18.9-95.164 248.604 248.604 0 0 1 53.873-80.678 248.477 248.477 0 0 1 80.639-53.902A248.4 248.4 0 0 1 249.446.872a42.114 42.114 0 0 1 20.299 15.585 42.138 42.138 0 0 1 7.531 24.463Z"/><path fill="url(#b)" d="M497.934 249.488a41.874 41.874 0 0 1-15.297 20.24 41.848 41.848 0 0 1-63.638-20.24 169.728 169.728 0 0 0-49.673-119.937 169.584 169.584 0 0 0-119.881-49.71 41.856 41.856 0 0 0 20.231-15.303 41.884 41.884 0 0 0 0-48.363A41.855 41.855 0 0 0 249.445.872c32.634 0 64.949 6.43 95.098 18.925a248.47 248.47 0 0 1 80.618 53.894 248.602 248.602 0 0 1 53.865 80.658 248.69 248.69 0 0 1 18.908 95.139Z"/><path fill="url(#c)" d="M497.933 249.488a248.656 248.656 0 0 1-18.909 95.136 248.573 248.573 0 0 1-53.865 80.652 248.451 248.451 0 0 1-80.619 53.888 248.371 248.371 0 0 1-95.096 18.917 41.866 41.866 0 0 1-20.231-15.303 41.89 41.89 0 0 1 0-48.362 41.867 41.867 0 0 1 20.231-15.304 169.53 169.53 0 0 0 64.91-12.909 169.58 169.58 0 0 0 55.029-36.778 169.717 169.717 0 0 0 49.682-119.983 41.874 41.874 0 0 0 15.297 20.24 41.848 41.848 0 0 0 63.639-20.24l-.068.046Z"/><path fill="url(#d)" d="M249.446 498.083a248.432 248.432 0 0 1-175.708-72.812A248.646 248.646 0 0 1 .957 249.489a41.87 41.87 0 0 1 15.297-20.239 41.843 41.843 0 0 1 48.342 0 41.87 41.87 0 0 1 15.296 20.239 169.706 169.706 0 0 0 49.675 119.975 169.6 169.6 0 0 0 55.021 36.78 169.534 169.534 0 0 0 64.903 12.915 41.86 41.86 0 0 0-20.231 15.303 41.894 41.894 0 0 0 0 48.363 41.86 41.86 0 0 0 20.231 15.303l-.045-.045Z"/><defs><linearGradient id="a" x1=".957" x2="277.276" y1="125.169" y2="125.169" gradientUnits="userSpaceOnUse"><stop stop-color="#D1C6E0"/><stop offset=".35" stop-color="#9274B2"/><stop offset=".71" stop-color="#652F8D"/><stop offset="1" stop-color="#2B1143"/></linearGradient><linearGradient id="b" x1="249.445" x2="497.934" y1="139.09" y2="139.09" gradientUnits="userSpaceOnUse"><stop offset=".01" stop-color="#82C2DF"/><stop offset=".3" stop-color="#3CAFD9"/><stop offset=".59" stop-color="#0379B8"/><stop offset=".7" stop-color="#006DAC"/><stop offset=".73" stop-color="#006AA9"/><stop offset=".91" stop-color="#334C84"/><stop offset="1" stop-color="#3A447A"/></linearGradient><linearGradient id="c" x1="240.4" x2="581.559" y1="466.797" y2="212.975" gradientUnits="userSpaceOnUse"><stop stop-color="#0C6237"/><stop offset=".406" stop-color="#31BB77"/><stop offset=".752" stop-color="#5BC792"/><stop offset=".98" stop-color="#B1E9CD"/></linearGradient><linearGradient id="d" x1=".957" x2="249.446" y1="359.865" y2="359.865" gradientUnits="userSpaceOnUse"><stop stop-color="#931B1E"/><stop offset=".32" stop-color="#ED4725"/><stop offset=".38" stop-color="#EE5F26"/><stop offset=".53" stop-color="#F08F27"/><stop offset=".74" stop-color="#F5C321"/><stop offset=".88" stop-color="#F8D718"/><stop offset="1" stop-color="#F6DF65"/></linearGradient></defs></svg>
